icons/jelastic.svg

<?xml version="1.0" encoding="UTF-8"?>
<svg width="256px" height="289px" viewBox="0 0 256 289" version="1.1" xmlns="http://www.w3.org/2000/svg" xmlns:xlink="http://www.w3.org/1999/xlink" preserveAspectRatio="xMidYMid">
    <defs>
        <linearGradient x1="50.008%" y1="87.683%" x2="50.008%" y2="0.077%" id="linearGradient-1">
            <stop stop-color="#0056B3" offset="0%"></stop>
            <stop stop-color="#0056B3" offset="25%"></stop>
            <stop stop-color="#0088FB" offset="70%"></stop>
            <stop stop-color="#00ACFF" offset="100%"></stop>
        </linearGradient>
    </defs>
    <g>
        <path d="M64.0110967,181.14968 L127.936445,144.235042 L127.936445,70.4057662 L64.0110967,107.320404 L64.0110967,181.14968 Z M127.936445,144.235042 L127.936445,70.4057662 L191.861793,107.320404 L191.861793,181.14968 L127.936445,144.235042 Z" fill="#0064C8"></path>
        <path d="M252.571581,72.2493544 C247.769677,64.2747636 239.709338,61.2306994 231.991992,56.6860402 L151.602972,10.2533424 C128.622431,-3.12339042 128.622431,-3.72362844 104.184169,10.2962166 L63.9682225,33.4911284 L191.861793,107.191782 L191.861793,181.14968 L127.936445,218.064317 L63.9682225,181.14968 L63.9682225,107.191782 L0,144.235042 L0,190.624865 C0,218.664555 0.514489725,218.321562 23.7094015,231.526799 L104.184169,278.173867 C127.379081,291.5506 127.379081,292.193712 151.602972,278.173867 L232.120614,231.526799 C255.315526,218.150066 255.787142,218.407311 255.787142,190.453369 L255.787142,97.7165958 C255.787142,88.6272773 257.244863,80.2668192 252.571581,72.2493544 Z" fill="url(#linearGradient-1)"></path>
        <path d="M2.84217094e-14,144.235042 L2.84217094e-14,190.624865 C2.84217094e-14,218.664555 0.514489725,218.321562 23.7094015,231.526799 L104.184169,278.173867 C127.379081,291.5506 127.379081,292.193712 151.602972,278.173867 L127.893571,218.150066 L63.9682225,181.14968 L63.9682225,107.191782 L2.84217094e-14,144.235042 Z" fill="#0056B3"></path>
        <path d="M252.528707,72.2922285 C247.726803,64.3176378 239.666464,61.2735735 231.949118,56.7289143 L151.560098,10.2962166 C128.408061,-3.08051628 128.365187,-3.68075429 104.141295,10.2962166 L63.9253484,33.5340025 L191.818919,107.191782 L191.818919,181.192554 L127.850697,218.107192 L63.9253484,181.192554 L63.9253484,107.191782 L0,144.277916 L0,190.710614 C0,218.664555 0.471615582,218.407311 23.6665274,231.784043 L104.141295,278.216741 C127.336207,291.593474 127.336207,292.236586 151.560098,278.216741 L232.034866,231.784043 C255.229778,218.407311 255.701394,218.664555 255.701394,190.710614 L255.701394,97.7594699 C255.744268,88.6701514 257.244863,80.3525675 252.528707,72.2922285 L252.528707,72.2922285 Z" fill="#0088FB" opacity="0.3"></path>
        <path d="M63.9682225,181.14968 L127.893571,144.235042 L127.893571,70.4057662 L63.9682225,107.320404 L63.9682225,181.14968 Z M127.893571,144.235042 L127.893571,70.4057662 L191.861793,107.320404 L191.861793,181.14968 L127.893571,144.235042 Z" fill="#0064C8"></path>
    </g>
</svg>

<svg xmlns="http://www.w3.org/2000/svg" viewBox="0 0 256.002 288.492">
  <defs>
    <linearGradient id="a" x1="135.893" x2="135.893" y1="238.271" y2=".209" gradientTransform="scale(.94208 1.06148)" gradientUnits="userSpaceOnUse">
      <stop offset="0%" stop-color="#0056B3"/>
      <stop offset="25%" stop-color="#0056B3"/>
      <stop offset="70%" stop-color="#0088FB"/>
      <stop offset="100%" stop-color="#00ACFF"/>
    </linearGradient>
  </defs>
  <path fill="#0064c8" d="m64.011 181.15 63.925-36.915v-73.83L64.011 107.32zm63.925-36.915v-73.83l63.926 36.915v73.83z"/>
  <path fill="url(#a)" d="M252.572 72.25c-4.802-7.975-12.863-11.02-20.58-15.564l-80.389-46.433c-22.98-13.376-22.98-13.977-47.419.043L63.968 33.491l127.894 73.7v73.959l-63.926 36.914-63.968-36.914v-73.958L0 144.235v46.39c0 28.04.514 27.697 23.71 40.902l80.474 46.647c23.195 13.377 23.195 14.02 47.419 0l80.518-46.647c23.195-13.377 23.666-13.12 23.666-41.074V97.717c0-9.09 1.458-17.45-3.215-25.468z" style="fill:url(#a)"/>
  <path fill="#0056b3" d="M0 144.235v46.39c0 28.04.514 27.697 23.71 40.902l80.474 46.647c23.195 13.377 23.195 14.02 47.419 0l-23.71-60.024-63.925-37v-73.958z"/>
  <path fill="#0088fb" d="M252.529 72.292c-4.802-7.974-12.863-11.018-20.58-15.563L151.56 10.296c-23.152-13.377-23.195-13.977-47.419 0L63.925 33.534l127.894 73.658v74l-63.968 36.915-63.926-36.914v-74.001L0 144.278v46.433c0 27.954.472 27.696 23.667 41.073l80.474 46.433c23.195 13.376 23.195 14.02 47.42 0l80.474-46.433c23.195-13.377 23.666-13.12 23.666-41.073V97.759c.043-9.089 1.544-17.406-3.172-25.467z" opacity=".3"/>
  <path fill="#0064c8" d="m63.968 181.15 63.926-36.915v-73.83L63.968 107.32zm63.926-36.915v-73.83l63.968 36.915v73.83z"/>
</svg>
